static/images/icons/grant.svg

<svg width="650" height="650" fill="none" xmlns="http://www.w3.org/2000/svg"><path d="M0 325C0 81.25 81.25 0 325 0s325 81.25 325 325-81.25 325-325 325S0 568.75 0 325z" fill="#266DD3"/><path fill-rule="evenodd" clip-rule="evenodd" d="M249.424 526h-.017c-4.455 0-8.157-3.618-8.157-8.157v-8.593c-18.492 0-33.5-15.008-33.5-33.5V258c0-18.492 15.008-33.5 33.5-33.5h33.5v-83.75c0-9.246 7.504-16.75 16.75-16.75h67c9.263 0 16.75 7.521 16.75 16.75v83.75h33.5c18.509 0 33.5 15.008 33.5 33.5v217.75c0 18.492-14.991 33.5-33.5 33.5v8.174a8.56 8.56 0 01-8.576 8.576h-.017c-4.438 0-8.157-3.584-8.157-8.157v-8.593H258v8.174a8.571 8.571 0 01-8.576 8.576zm-8.174-50.25h167.5V258h-167.5v217.75zm33.634-167.5h-8.509a8.378 8.378 0 01-8.375-8.375 8.378 8.378 0 018.375-8.375h117.25a8.367 8.367 0 018.375 8.375 8.367 8.367 0 01-8.375 8.375h-75.911c4.389 5.092 7.755 11.139 9.682 16.8l21.59.05 59.094 59.329-47.452 47.285-59.111-59.345.05-24.723c-10.167-6.951-17.889-22.01-16.683-39.396zm61.004 54.789l30.501 30.502-5.929 5.913-30.485-30.485 5.913-5.93zm11.457 29.229l-5.93 5.913-20.334-20.335 5.929-5.912 20.335 20.334zm-2.58-38.106l30.502 30.502-5.913 5.912-30.502-30.485 5.913-5.929zm-26.331-12.161c-1.541 4.59-5.578 7.739-10.15 9.028.703 6.985 9.229 10.051 14.237 5.076 4.707-4.657 2.328-12.646-4.087-14.104zm-35.125-33.751c-.887 11.507 2.613 21.557 8.275 28.174l.033-11.424 16.801.033c-3.166-7.269-7.806-12.964-12.797-16.783h-12.312zM358.5 224.5v-58.625a8.367 8.367 0 00-8.375-8.375h-50.25a8.378 8.378 0 00-8.375 8.375V224.5h67z" fill="#fff"/></svg>

<svg width="650" height="650" viewBox="0 0 650 650" fill="none" xmlns="http://www.w3.org/2000/svg">
<path d="M0 325C0 81.25 81.25 0 325 0C568.75 0 650 81.25 650 325C650 568.75 568.75 650 325 650C81.25 650 0 568.75 0 325Z" fill="#266DD3"/>
<path fill-rule="evenodd" clip-rule="evenodd" d="M249.424 526H249.407C244.952 526 241.25 522.382 241.25 517.843V509.25C222.758 509.25 207.75 494.242 207.75 475.75V258C207.75 239.508 222.758 224.5 241.25 224.5H274.75V140.75C274.75 131.504 282.254 124 291.5 124H358.5C367.763 124 375.25 131.521 375.25 140.75V224.5H408.75C427.259 224.5 442.25 239.508 442.25 258V475.75C442.25 494.242 427.259 509.25 408.75 509.25V517.424C408.75 522.164 404.931 526 400.174 526H400.157C395.719 526 392 522.416 392 517.843V509.25H258V517.424C258 522.164 254.164 526 249.424 526V526ZM241.25 475.75H408.75V258H241.25V475.75V475.75ZM274.884 308.25H266.375C261.752 308.25 258 304.498 258 299.875C258 295.252 261.752 291.5 266.375 291.5H383.625C388.265 291.5 392 295.252 392 299.875C392 304.498 388.265 308.25 383.625 308.25H307.714C312.103 313.342 315.469 319.389 317.396 325.05L338.986 325.1L398.08 384.429L350.628 431.714L291.517 372.369L291.567 347.646C281.4 340.695 273.678 325.636 274.884 308.25ZM335.888 363.039L366.389 393.541L360.46 399.454L329.975 368.969L335.888 363.039V363.039ZM347.345 392.268L341.415 398.181L321.081 377.846L327.01 371.934L347.345 392.268ZM344.765 354.162L375.267 384.664L369.354 390.576L338.852 360.091L344.765 354.162ZM318.434 342.001C316.893 346.591 312.856 349.74 308.284 351.029C308.987 358.014 317.513 361.08 322.521 356.105C327.228 351.448 324.849 343.459 318.434 342.001ZM283.309 308.25C282.422 319.757 285.922 329.807 291.584 336.424L291.617 325L308.418 325.033C305.252 317.764 300.612 312.069 295.621 308.25H283.309V308.25ZM358.5 224.5V165.875C358.5 161.252 354.765 157.5 350.125 157.5H299.875C295.252 157.5 291.5 161.252 291.5 165.875V224.5H358.5Z" fill="white"/>
</svg>
